X:1
T:18 - Zefiro torna
T:Luca Marenzio (1556 - 1599) 1º Libro di Madrigali a quattro voci (Venetia, 1592)
T:Francesco Petrarca
T:18 - Zefiro torna
T:© 2018 Ed. Marcos Mato
T:© 2018 Ed. Marcos Mato
T:© 2018 Ed. Marcos Mato
T:© 2018 Ed. Marcos Mato
T:© 2018 Ed. Marcos Mato
T:© 2018 Ed. Marcos Mato
T:© 2018 Ed. Marcos Mato
C:Luca Marenzio (1556 - 1599)
C:1º Libro di Madrigali a quattro voci (Venetia, 1592)
Z:Francesco Petrarca
Z:© 2018 Ed. Marcos Mato
%%score [ 1 2 3 4 ]
L:1/8
M:4/4
K:F
V:1 treble nm="Soprano" snm="Sop."
V:2 alto2 nm="Alto" snm="A."
V:3 alto transpose=-12 nm="Tenor" snm="T."
V:4 bass3 nm="Basso" snm="Bajo"
V:1
 d4 | [Eg]2 |[M:4/2]"^Prima parte" z4 d6 cB A4 | G4 z2 B2 c2 d3 d d2 | ^c4 d2 f4 ed c2 c2 | %5
w: ||Ze- fi- ro tor-|na, e'l bel tem- po ri-|me- na, ze- fi- ro tor- na,|
 z4 d6 =cB A4 | G4 z2 B2 c2 d3 d d2 | ^c4 d3 c/B/ A4 z2"^§" =c2 | defd e2 c2 =BcdB c4 | %9
w: ze- fi- ro tor-|na, e'l bel tem- po ri-|me- * * * na, e\_i|fior', _ _ _ _ e\_i fior' _ _ _ _|
 z2 d2 cdef g2 g2 z2 c2 | d8 d8 | c4 B6 AG A4 | B4 d2 d2 cBAG F4 | z4 d2 d2 cBAG F4 | B8 A4 A4- | %15
w: e l'her- * * * * be, sua|dol- ce|fa- mi- * * *|glia, e gar- rir, _ _ _ _|e gar- rir _ _ _ _|Progn' e pian-|
 A4 A4 A4 =B4 | c8 c2 e2 e3 f | e2 d2 c3 c d2 d2 d4 | d8 g3 f/e/ d3 c/B/ | %19
w: * ger Phi- lo-|me- na, e pri- ma-|ve- ra can- di- da\_e ver- mi-|glia. Ri- * * * * *|
 A2 G2 g3 f/e/ d3 c/B/ A2 =B2- | B2 c2 d8 c4 | z2 c2 d4 z2 f2 d4- | d2 d2 e2 ^f2 g8 | c8 z8 | %24
w: * don, ri- * * * * * * don|_ i pra- ti,|e'l ciel, e'l ciel|_ si ras- se- re-|na;|
 d4 d2 d2 d4 d4 | d2 dd d2 d2 d3 d f2 e2 | d8 c8 | cdef g2 g2 e4 c4- | c4 c4 B8 | A8 d8 | %30
w: Gio- ve s'al- le- gra,|Gio- ve s'al- le- gra di mi- rar sua|fi- glia;|l'a- * * * * ria l'ac- qua\e|_ la ter-|ra\_è d'a-|
 d4 B6 AG A4 | B8 z4 d4 | d2 d2 cBAB c4 z2 c2 | c6 B4 A4 G2 | A8 A8 | z16 | %36
w: mor pie- * * *|na; ogn'|a- ni- mal _ _ _ _ d'a-|mar si ri- con-|si- glia,||
 z2 f2 f2 f2 edcd e2 d2 | c2 f2 f2 ed c2 d4 ^c2 | d16 ||"^Seconda parte" z16 | z16 | z8 d8- | %42
w: ogn' a- ni- mal _ _ _ _ d'a-|mar si ri- * * * con- si-|glia.|||Ma|
 d4 c4 c8 | B16 | A8 d6 d2 | d4 e4 f8 | f4 d4 c8 | d8 z4 B2 B2 | f4 F4 E4 E4 | %49
w: _ per me,|las-|so, tor- na-|no\_i più gra-|vi sos- pi-|ri, che del|cor pro- fon- do|
 F2 G2 A2 B2 c2 d2 e2 f2 | g4 d4 f8 | e2 c2 g6 f2 e2 d2 | c2 B2 A6 G2 G4- | G2"^#" ^FE F4 G8 | %54
w: trag- * * * * * * *|* ge quel-|la ch'al ciel se ne por-|tò le chia- * *|* * * * vi;|
 g2 g2 g2 =fe f2 f2 z4 | e2 e2 e2 dc d2 d2 z4 | c2 c2 c2 BA B2 B2 z4 | z4 e3 f g3 f/e/ d4- | %58
w: e can- tar au- gel- let- ti,|e can- tar au- gel- let- ti,|e can- tar au- gel- let- ti,|e fio- rir, _ _ _|
 d4 A3 B c3 B/A/ G3 A | B3 A/G/ F4 A4 G4 | z4 A4 c6 c2 | c4 c4 d8 | d4 z2 B3 B A2 G4- | %63
w: _ e fio- rir _ _ _ _|_ _ _ _ piag- ge,|e'n bel- le|donn' ho- nes-|te at- ti so- a-|
 G4 G2 g4 e4 c2- | c2 A4 F4 f4 d2- | d2 B4 B4 F2 B4- | B4 B8 c4- | c4 B8 A2 G2 | ^F4 G8 F4 | G16 | %70
w: * vi so- no\_un de-|* ser- to, so- no\un|_ de- ser- to,\_e fe-|* re\_as- pr'e|_ sel- * *|* vag- *|ge,|
 z2 g4 e4 c4 A2- | A2 A2 d8 B4- | B4 c8 B4- | B4 A2 G2 ^F4 G4- | G4 ^F4 G8 |] %75
w: so- no\_un de- ser-|* to, fe- re\_as-|* pr'e sel-|* * * * vag-|* * gio.|
V:2
 B4 | [F,c]2 |[M:4/2] B6 AG ^F2 G4 F2 | G4 z2 G2 A2 B3 B B2 | A8 A8 | z2 B4 AG ^F2 G4 F2 | %6
w: ||Ze- fi- ro tor- * *|na, e'l bel tem- po ri-|me- na,|ze- fi- ro tor- * *|
 G4 z2 G2 A2 B3 B B2 | A4 A2 A2 FGAF G4 | z2 D2 CDEC D4 z2 E2 | DEFG A2 A2 z4 A4 | B8 B4 A4 | %11
w: na, e'l ben tem- po ri-|me- na, e\_i fior', _ _ _ _|e\_i fior' _ _ _ _ e|l'her- * * * * be, sua|dol- ce fa-|
 G8 F8 | F4 z4 z4 B2 B2 | AGFE D3 E F8 | G8 E4 E4- | E4 E4 A,4 D4 | E8 E2 E2 c3 c | %17
w: mi- *|glia, e gar-|rir _ _ _ _ _ _|Pro- gne\_e pian-|* ger Phi- lo-|me- na, e pri- ma-|
 c2 A2 A3 A F2 B2 A4 | B8 GFGA B3 A/G/ | F2 B2 GFGA B3 A/G/ ^F2 G2- | G2 G2 B8 A4 | %21
w: ve- ra can- di- da\_e ver- mi-|glia. Ri- * * * * * *|* don, ri- * * * * * * * don|_ i pra- ti,|
 z2 G2 B4 z2 A2 B4- | B2 A2 c2 c2 B8 | A8 z8 | B4 B2 B2 B4 B4 | A2 AA B2 B2 B3 B d2 c2 | B8 A8 | %27
w: e'l ciel, e'l ciel|_ si ras- se- re-|na;|Gio- ve s'al- le- gra,|Gio- ve s'al- le- gra di mi- rar sua|fi- glia;|
 z4 CDEF G2 G2 E4 | G4 A4 G8 | F3 G A4 D3 E F4 | B,3 C D4 F8 | F8 z2 B2 B2 B2 | %32
w: l'a- * * * * ria l'ac-|qua\_e la ter-|ra\_è d'A- mor è d'a- mor,|e d'a- mor pie-|na; ogn' a- ni-|
 AGFG A4 z2 A2 A2 A2 | G3 F E2 D2 C4 D4 | E8 F3 G A4 | z2 A2 A2 A2 GFEF G4 | z2 c2 c2 c2 c6 B2 | %37
w: mal, _ _ _ _ ogn' a- ni-|mal d'a- mar si ri- con-|si- * * glia,|ogn' a- ni- mal _ _ _ _|ogn' a- ni- mal d'a-|
 A3 G F2 G2 A8 | A16 || z8 A8- | A4 G4 G4 A4- | A4 G2 F2 G8 | A16 | D6 D2 D4 E4 | F8 F8 | %45
w: mar si ri- con- si-|glia.|Ma|_ per me, las-||so,|tor- na- no\_i più|gra- vi|
 z4 B8 A2 G2 | A4 B8 A4 | z4 F2 F2 B8 | A8 A4 A,4- | A,4 D4 C8 | D8 D2 F2 c4- | %51
w: sos- * *|* pi- ri,|che del cor|pro- fon- do|_ trag- ge|quel- la ch'al ciel|
 c2 C2 E2 F2 G2 A2 B4 | A8 z8 | z16 | B2 B2 B2 AG A2 A2 z4 | G2 G2 c2 BA B2 F2 z4 | %56
w: _ se ne por- tò le chia-|vi;||e can- tar au- gel- let- ti,|e can- tar au- gel- let- ti,|
 E2 E2 A2 GF G2 G2 z4 | A3 B c3 B/A/ G4 B4 | F2 F3 G A3 G/F/ E3 F G2- | GF/E/ D4 F4 C2 z4 | %60
w: e can- tar au- gel- let- ti,|e fio- rir _ _ _ piag-|ge, e fio- rir _ _ _ _ _|_ _ _ _ piag- ge,|
 F8 A6 A2 | G4 A4 B8 | B4 z2 G3 G F2 E4- | E4 E4 z2 c4 A2- | A2 F4 D4 B,4 B2- | B2 G4 F4 B4 G2 | %66
w: e'n bel- le|donn' ho- nes-|te at- ti so- a-|* vi so- no\un|_ de- ser- to, so-|* no\_un de- ser- to,\_e|
 F8 G8 | A4 B4 c6 C2 | D16 | B,3 C D8 z2 G2- | G2 E4 C4 A,4 F,2 | F16 | G8 A4 B4 | c6 C2 D8- | %74
w: fe- re\_as-|pr'e sel- vag- *||* * ge, so-|* no\_un de- ser- to\_e|fe-|re\_as- pr'e sel-|vag- * *|
 D8 =B,8 |] %75
w: * ge.|
V:3
 G4 | [F,A]2 |[M:4/2] G6 FE D8 | G,4 z2 D2 F2 F3 F G2 | E4 D4 z8 | G6 FE D8 | %6
w: ||Ze- fi- ro tor-|na, e'l ben tem- po ri-|me- na,|ze- fi- ro tor-|
 G,4 z2 D2 F2 F3 F G2 | E4 D4 z2 D2 EFGE | F4 z4 z2 D2 EFGE | F4 z2 C2 B,CDE F2 F2 | F8 D8 | %11
w: na, e'l bel tem- po ri-|me- na, e\_i fior', _ _ _|_ e\_i fior' _ _ _|_ e l'her- * * * * be,|sua dol-|
 _E4 D4 C8 | D4 F2 G2 AGF=E D4 | z4 F2 G2 AGFE D4 | D8 ^C4 C4- | C4"^#" ^C4 D6 G2 | G8 G2 G2 G3 A | %17
w: ce fa- mi-|glia, e gar- rir, _ _ _ _|e gar- rir _ _ _ _|Pro- gne\_e pian-|* ger Phi- lo-|me- na, e pri- ma-|
 G2 F2 E3 F D2 G2 ^F4 | G8 G,A,B,C D2 G,2 | z4 G,A,B,C D2 G,2 z2 D2- | DD E2 F8 F4 | %21
w: ve- ra can- di- da\_e ver- mi-|glia. Ri- * * * * don,|ri- * * * * don, ri-|* don i pra- ti,\_e'l|
 E4 z2 D2 F4 z2 B,2 | F3 F G2 A2 D4 E4 | F8 D4 D2 D2 | F4 F4 F2 FF F2 G2 | F3 F F2 G2 F8- | F8 F8 | %27
w: ciel, e'l ciel, e'l|ciel si ras- se- re- *|na; Gio- ve s'al-|le- gra, Gio- ve s'al- le- gra|di mi- rar sua fi-|* glia;|
 z8 CDEF G2 G2 | E4 C2 F2 D8 | D4 C4 B,4 A,4 | B,2 G,3 A, B,2 C8 | D8 G4 G2 G2 | FEDE F4 z2 C2 F4 | %33
w: l'a- * * * * ria|l'ac- qua\_e la ter-|ra\_è d'a- mor pie-|na, è d'a- mor pie-|na; ogn' a- ni-|mal _ _ _ _ d'a- mar,|
 z2 E2 G3 F E2 F2 F2 ED | ^C2 D4 C2 D4 z2 F2 | F2 F2 ED=CD E8 | z2 A2 A2 A2 GFEF G2 G2 | %37
w: d'a- mar si ri- con- si- * *|* * * glia, ogn'|a- ni- mal, _ _ _ _|ogn' a- ni- mal _ _ _ _ d'a-|
 E2 C2 D2 E2 F2 ED E4 | D16 || F12 E4 | E16 | D16 | E16 | G6 G2 G4 G4 | C8 B,4 A,4 | %45
w: mar si ri- con- si- * * *|glia.|Ma per|me,|las-|so,|tor- na- no\_i più|gra- vi sos-|
 B,6 C2 D4 C2 B,2 | C2 F,2 F6 ED C4 | B,8 G,2 G,2 D4- | D4 D4 ^C4 C4 | D4 A,4 z8 | G8 F2 D2 A4- | %51
w: pi- * * * *||ri, che del cor|_ pro- fon- do|trag- ge|quel- la ch'al ciel|
 A2 A,2 C2 D2 E2 D2 G4 | E4 z2 F2 D6 CB, | C8 D8- | D4 z4 F2 F2 F2 ED | E2 E2 z4 F2 D2 D2 CB, | %56
w: _ se ne por- tò le chia-|vi, le chia- * *|* vi;|_ e can- tar au- gel-|let- ti, e can- tar au- gel-|
 C2 C2 z4 D2 D2 B,2 A,G, | A,2 C2 z4 E3 F G3 F/E/ | D2 D4 C2 z4 E3 F | G4 A3 G F4 E4 | %60
w: let- ti, e can- tar au- gel-|let- ti, e fio- rir _ _|_ piag- ge, e fio-|rir piag- * * ge,|
 z4 F4 F6 F2 | E4 F4 B,8 | B,4 z2 _E3 E F2 C4- | C4 C4 z2 C2 =E2 E2 | F4 A4 z2 D2 F2 F2 | %65
w: e'n bel- le|donn' ho- nes-|te at- ti so- a-|* vi so- no\_un de-|ser- to, so- no\_un de-|
 G4 G,2 B,2 D2 D2 E4- | E4 D8 C4- | C4 D8 C4- | C4 B,4 A,8 | G,16 | G4 E4 C4 A,4 | F,8 z4 D4 | %72
w: ser- to, so- no\_un de- ser-|* to,\_e fe-|* re\_as- pre\e|_ sel- vag-|ge,|so- no\_un de- ser-|to, e|
 _E12 D4- | D4 C8 B,4 | A,8 G,8 |] %75
w: fe- re\_as-|* pre\_e sel-|vag- ge.|
V:4
 G,4 | [B,,D]2 |[M:4/2] z16 | z4 G,4 F,2 B,3 B, G,2 | A,4 D,2 D4 CB, A,4 | G,8 z8 | %6
w: |||E'l bel tem- po ri-|me- na, Ze- fi- ro tor-|na,|
 z4 G,4 F,2 B,3 B, G,2 | A,4 D,4 D4 C4 | B,4 A,4 G,4 C4 | B,4 A,4 G,4 F,4 | B,4 A,4 G,4 F,4 | %11
w: e'l bel tem- po ri-|me- na, e\_i fior'|e l'her- be, e\_i|fior' e l'her- be,|sua dol- ce fa-|
 _E,8 F,8 | B,,8 F,2 F,2 B,4 | F,2 F,2 B,4 F,2 F,2 B,4 | G,8 A,4 A,4- | A,4 A,4 ^F,4 G,4 | %16
w: mi- *|glia, e gar- rir,|e gar- rir, e gar- rir|Pro- gne\_e pian-|* ger Phi- lo-|
 C,8 C,2 C2 C3 =F, | C2 D2 A,3 A, B,2 G,2 D4 | G,8 z4 G,A,B,C | D2 G,2 z4 G,A,B,C D2 G,2- | %20
w: me- na, e pri- ma-|ve- ra can- di- da\_e ver- mi-|glia. Ri- * * *|* don, ri- * * * * don|
 G,2 C2 B,8 F,4 | C4 z2 G,2 D4 z2 G,2 | D3 D C2 A,2 G,8 | F,8 B,4 B,2 B,2 | %24
w: _ i pra- ti,\_e'l|ciel, e'l ciel, e'l|ciel si ras- se- re-|na; Gio- ve s'al-|
 B,4 B,,4 B,2 B,B, B,2 G,2 | D3 D B,2 G,2 B,4 B,4 | B,,2 C,2 D,2 E,2 F,4 F,4 | C8 C,4 C4- | %28
w: le- gra, Gio- ve s'al- le- gra|di mi- rar sua fi- glia,|di mi- rar sua fi- glia;|l'a- ria l'ac-|
 C4 F,2 F,2 G,8 | D,3 E, F,4 B,,3 C, D,4 | G,3 A, B,4 F,8 | B,,8 z8 | z8 F,8 | C6 G,2 A,4 B,4 | %34
w: * qua\_e la ter-|ra\_è d'a- mor, e d'a- mor,|e d'a- mor pie-|na;|d'a-|mor, si ri- con-|
 A,8 D,4 D4 | D2 D2 CB,A,B, C8 | F,8 C6 G,2 | A,4 B,4 A,8 | D,16 || D12 C4 | C16 | B,16 | A,16 | %43
w: si- glia, ogn'|a- ni- mal _ _ _ _|d'a- mar si|ri- con- si-|glia.|Ma per|me,|las-|so,|
 G,6 G,2 G,4 G,4 | F,8 D,4 D,4 | G,8 F,8- | F,16 | B,,2 B,,2 B,8 G,2 G,2 | D4 D,4 A,,4 A,,4 | %49
w: tor- na- no\_i più|gra- vi sos-|pi- ri,|_|che del cor, che del|cor pro- fon- do|
 D,2 E,2 F,2 G,2 A,2 B,2 C4 | G,4 B,8 A,2 F,2 | C6 B,2 G,4 G,4 | A,4 F,4 B,6 A,G, | A,8 G,8- | %54
w: trag- * * * * * *|ge quel- la ch'al|ciel se ne por-|tò le chia- * *|* vi;|
 G,8 D2 D2 D2 CB, | C2 C2 z4 B,2 B,2 B,2 A,G, | A,2 A,2 z4 G,2 G,2 G,2 F,E, | %57
w: _ e can- tar au- gel-|let- ti, e can- tar au- gel-|let- ti, e can- tar au- gel-|
 F,2 F,2 z4 z4 G,3 A, | B,3 A,/G,/ F,4 A,3 B, C3 B,/A,/ | G,3 F,/E,/ D,4 F,4 C,4 | z16 | z16 | %62
w: let- ti, e fio-|rir, _ _ _ e fio- rir _ _|_ _ _ _ piag- ge,|||
 z16 | z8 C4 A,4 | F,4 D,4 B,,4 B,4 | G,4 D4 B,4 G,4 | B,8 _E,8 | F,12 =E,4 | D,8 D,8 | %69
w: |so- no\_un|de- ser- to, so-|no\_un de- ser- to,\_e|fe- re\_as-|pre\_e sel-|vag- ge,|
 D4 B,4 G,4 _E,4 | C,4 C4 A,4 F,4 | D,4 B,,4 B,8 | _E,8 F,8- | F,4 =E,4 D,8- | D,8 G,8 |] %75
w: so- no\_un de- ser-|to, so- no\_un de-|ser- to,\_e fe-|re\_as- pre\e|_ sel- vag-|* ge.|

